X: 38568
T: Stoidhle Neill Ghobha
R: strathspey
M: 4/4
K: Eminor
A<BB>A B2B>A|G>AB<d A<DD2|B2B>A B<EB>A|G>AF<D D<EE<D|
B2B>A B>EB>A|G>AB<d A<DD2|B2B>A B>EB>A|G>AF<D D<EE<D|
D>EG>A A>BB>e|d>BA>G F<DD>F|D>EG>A A>BB>e|d>BA>F B<EE>D|
E2G>A A>BB>e|d>BA>G F<DD>F|E<GF>A G>AB>e|d>BA>F B<EE>D|

